Papirus/32x32/apps/xcom-2.svg

<svg width="32" height="32" version="1.1" xmlns="http://www.w3.org/2000/svg">
 <path d="m10 3c-0.8604214 3.903e-4 -1.6241829 0.5509908-1.8964844 1.3671875l-4 12c-0.219876 0.657196-0.083907 1.381377 0.359375 1.914062l10.000001 12c0.799703 0.960425 2.274515 0.960425 3.074218 0l10-12c0.443282-0.532685 0.579251-1.256866 0.359375-1.914062l-4-12c-0.272301-0.8161965-1.036063-1.366797-1.896484-1.3671875z" style="opacity:.2"/>
 <path d="m10 1.9995688c-0.8604214 3.903e-4 -1.6241829 0.5509908-1.8964844 1.3671875l-4 12.000001c-0.219876 0.657196-0.083907 1.381377 0.359375 1.914062l10 12c0.799703 0.960425 2.274515 0.960425 3.074218 0l10-12c0.443282-0.532685 0.579251-1.256866 0.359375-1.914062l-4-12.000001c-0.272301-0.8161965-1.036063-1.366797-1.896484-1.3671875z" style="fill:#02c0f3"/>
 <path d="m16 12.999569a12 8.5 0 0 0-10.929688 5.009766l9.3925785 11.271484c0.393377 0.472437 0.950387 0.709147 1.509765 0.716797a12 8.5 0 0 0 0.02734 2e-3 12 8.5 0 0 0 0.02344 0c0.560754-0.0065 1.119335-0.245161 1.513671-0.71875l9.390627-11.267625a12 8.5 0 0 0-10.927734-5.013672z" style="fill:#2dd1fd"/>
 <path d="m10 1.9995688c-0.8604214 3.903e-4 -1.6241829 0.5509908-1.8964844 1.3671875l-4 12.000001c-0.1247275 0.372802-0.1227701 0.764082-0.027344 1.132812 0.011456-0.04405 0.012779-0.08928 0.027344-0.132812l4-12.000001c0.2723015-0.8161967 1.036063-1.3667972 1.8964844-1.3671875h12c0.860421 3.905e-4 1.624183 0.550991 1.896484 1.3671875l4 12.000001c0.01456 0.04353 0.01589 0.08877 0.02734 0.132812 0.09543-0.36873 0.09738-0.76001-0.02734-1.132812l-4-12.000001c-0.272301-0.8161965-1.036063-1.366797-1.896484-1.3671875z" style="fill:#ffffff;opacity:.2"/>
 <path d="m16 5s-2 0-2.624076 0.3723493c-1.266017 0.6460943-2.375924 2.2943961-2.375924 4.6276507h3c0-1.7499847 2-2 2-2s2 0.2500153 2 2c0 0.923642-0.239356 1.440029-0.696428 2.023332-0.457157 0.583412-1.188617 1.16899-2.04576 1.825234s-1.839884 1.383221-2.668526 2.440529c-0.828558 1.057199-1.589286 2.259587-1.589286 3.960922v1.749983h10v-3h-6c0.05366-0.077 0.03206-0.194598 0.09377-0.273347 0.457114-0.583445 0.933964-1.418883 1.791106-2.075127 0.857143-0.656245 1.839926-1.383188 2.668526-2.440529 0.8286-1.057166 1.446429-2.509478 1.446429-4.210813 0-2.3332548-1.395806-3.9817404-2.661823-4.6278347-0.338008-0.3723493-2.338008-0.3723493-2.338008-0.3723493z" style="fill-rule:evenodd;opacity:.1"/>
 <path d="m16 4s-2 0-2.624076 0.3723493c-1.266017 0.6460943-2.375924 2.2943961-2.375924 4.6276507h3c0-1.7499847 2-2 2-2s2 0.2500153 2 2c0 0.9236419-0.239356 1.440029-0.696428 2.023332-0.457157 0.583412-1.188617 1.16899-2.04576 1.825234s-1.839884 1.383221-2.668526 2.440529c-0.828558 1.057199-1.589286 2.259587-1.589286 3.960922v1.749983h10v-3h-6c0.05366-0.077 0.03206-0.194598 0.09377-0.273347 0.457114-0.583445 0.933964-1.418883 1.791106-2.075127 0.857143-0.656245 1.839926-1.383188 2.668526-2.440529 0.8286-1.057166 1.446429-2.509478 1.446429-4.2108132 0-2.3332546-1.395806-3.9817402-2.661823-4.6278345-0.338008-0.3723493-2.338008-0.3723493-2.338008-0.3723493z" style="fill-rule:evenodd;fill:#333333"/>
</svg>

<svg xmlns="http://www.w3.org/2000/svg" width="32" height="32" version="1.1">
 <path style="opacity:0.2" d="M 10,3.0004 C 9.1396,3.0008 8.3758,3.5514 8.1035,4.3676 L 4.1035,16.367 C 3.8836,17.024 4.0196,17.749 4.4629,18.281 L 14.463,30.281 C 15.263,31.242 16.737,31.242 17.537,30.281 L 27.537,18.281 C 27.98,17.749 28.116,17.024 27.896,16.367 L 23.896,4.3676 C 23.624,3.5514 22.86,3.0008 22,3.0004 Z"/>
 <path style="fill:#02c0f3" d="M 10,2 C 9.1396,2.0004 8.3758,2.551 8.1035,3.3672 L 4.1035,15.367 C 3.8836,16.024 4.0196,16.748 4.4629,17.281 L 14.463,29.281 C 15.263,30.241 16.737,30.241 17.537,29.281 L 27.537,17.281 C 27.98,16.748 28.116,16.024 27.896,15.367 L 23.896,3.3672 C 23.624,2.551 22.86,2.0004 22,2 Z"/>
 <path style="fill:#2dd1fd" d="M 16,13 A 12,8.5 0 0 0 5.0703,18.009 L 14.463,29.281 C 14.856,29.753 15.413,29.99 15.973,29.998 A 12,8.5 0 0 0 16,30 12,8.5 0 0 0 16.023,30 C 16.584,29.993 17.143,29.754 17.537,29.281 L 26.928,18.013 A 12,8.5 0 0 0 16,13 Z"/>
 <path style="opacity:0.2;fill:#ffffff" d="M 10,2 C 9.1396,2.0004 8.3758,2.551 8.1035,3.3672 L 4.1035,15.367 C 3.9788,15.74 3.9807,16.131 4.0762,16.5 4.0876,16.456 4.089,16.41 4.1035,16.367 L 8.1035,4.3672 C 8.3758,3.551 9.1396,3.0004 10,3 H 22 C 22.86,3.0004 23.624,3.551 23.896,4.3672 L 27.896,16.367 C 27.911,16.41 27.912,16.456 27.924,16.5 28.019,16.131 28.021,15.74 27.896,15.367 L 23.896,3.3672 C 23.624,2.551 22.86,2.0004 22,2 Z"/>
 <path style="opacity:0.1" d="M 16,5.0004 C 16,5.0004 14,5.0004 13.376,5.3727 12.11,6.0188 11,7.6671 11,10 H 14 C 14,8.2504 16,8.0004 16,8.0004 16,8.0004 18,8.2504 18,10 18,10.924 17.761,11.44 17.304,12.023 16.846,12.607 16.115,13.192 15.258,13.849 14.401,14.505 13.418,15.232 12.589,16.289 11.761,17.346 11,18.549 11,20.25 V 22 H 21 V 19 H 15 C 15.054,18.923 15.032,18.805 15.094,18.727 15.551,18.143 16.028,17.308 16.885,16.652 17.742,15.995 18.725,15.268 19.553,14.211 20.382,13.154 21,11.702 21,10 21,7.6673 19.604,6.0188 18.338,5.3727 18,5.0004 16,5.0004 16,5.0004 Z"/>
 <path style="fill:#333333" d="M 16,4.0004 C 16,4.0004 14,4.0004 13.376,4.3727 12.11,5.0188 11,6.6671 11,9.0004 H 14 C 14,7.2504 16,7.0004 16,7.0004 16,7.0004 18,7.2504 18,9.0004 18,9.924 17.761,10.44 17.304,11.023 16.846,11.607 16.115,12.192 15.258,12.849 14.401,13.505 13.418,14.232 12.589,15.289 11.761,16.346 11,17.549 11,19.25 V 21 H 21 V 18 H 15 C 15.054,17.923 15.032,17.805 15.094,17.727 15.551,17.143 16.028,16.308 16.885,15.652 17.742,14.995 18.725,14.268 19.553,13.211 20.382,12.154 21,10.702 21,9.0006 21,6.6673 19.604,5.0188 18.338,4.3727 18,4.0004 16,4.0004 16,4.0004 Z"/>
</svg>
